public/icons/flag_white.svg

<svg width="16" height="18" viewBox="0 0 16 18" fill="none" xmlns="http://www.w3.org/2000/svg">
<path d="M1.9375 0.4375C2.21929 0.4375 2.48922 0.549766 2.68848 0.749023L2.75977 0.826172C2.8833 0.976906 2.9611 1.15913 2.98828 1.35156L14.5518 5.59277H14.5527L14.6768 5.65039C14.7562 5.69475 14.8286 5.75082 14.8906 5.81738L14.9756 5.9248L15.043 6.04395C15.0815 6.12642 15.1068 6.21438 15.1182 6.30469L15.125 6.44043C15.1208 6.57802 15.0837 6.71222 15.0186 6.83203L14.9443 6.94727C14.8606 7.05624 14.7526 7.14306 14.6299 7.20215L14.502 7.25195L3 10.7031V16.5C3 16.7466 2.91472 16.9847 2.75977 17.1738L2.68848 17.251C2.48922 17.4502 2.21929 17.5625 1.9375 17.5625C1.69089 17.5625 1.45275 17.4772 1.26367 17.3223L1.18652 17.251C0.987266 17.0517 0.875 16.7818 0.875 16.5V1.5C0.875 1.21821 0.987266 0.948281 1.18652 0.749023L1.26367 0.677734C1.45275 0.522776 1.69089 0.4375 1.9375 0.4375Z" fill="white" stroke="white"/>
</svg>

<svg xmlns="http://www.w3.org/2000/svg" width="16" height="18" fill="none"><path fill="#fff" stroke="#fff" d="M1.938.438c.281 0 .551.112.75.311l.072.077c.123.15.201.333.228.526l11.564 4.24.125.058c.08.045.152.1.214.167l.085.108.067.119c.039.082.064.17.075.26l.007.136a.877.877 0 0 1-.106.392l-.075.115a.874.874 0 0 1-.314.255l-.128.05L3 10.703V16.5c0 .247-.085.485-.24.674l-.072.077a1.062 1.062 0 0 1-1.424.071l-.077-.071c-.2-.2-.312-.47-.312-.751v-15c0-.282.112-.552.312-.751l.077-.071c.189-.155.427-.24.673-.24Z"/></svg>
